!!!COM: adam-lambert
!!!OTL: whataya-want-from-me
!!!RNB: hooktheoryid: qveoYyGGodn
**kern	**text
*clefG2	*
*k[f#c#]	*
*M4/4	*
=1	=1
4r	G
4b	.
4a	A
8e	.
[8f#	.
=2	=2
4f#]	Bm
8b	.
8a	.
8a	D
8a	.
8f#	.
[8d	.
=3	=3
8d]	G
8r	.
8b	.
8a	.
8a	A
8e	.
8e	.
[8f#	.
=4	=4
4f#]	Bm
8r	.
16f#	.
16e	.
8f#	D
4a	.
8d	.
=5	=5
8d	G
8r	.
8b	.
8a	.
4a	A
8e	.
[8f#	.
=6	=6
4f#]	Bm
8b	.
8b	.
8a	D
8a	.
8f#	.
[8d	.
=7	=7
8d]	G
8r	.
8b	.
8b	.
8a	A
8a	.
8g	.
8g	.
=8	=8
4f#	Bm
8.r	.
[16aL	.
8a]J	D
8r	.
16a	.
16a	.
16a	.
[16a	.
=9	=9
16a]	G
16d	.
4.d	.
4r	A
16a	.
16a	.
16a	.
[16a	.
=10	=10
16a]	Bm
16c#	.
4c#	.
[8dL	.
4d]J	D
16a	.
16a	.
16a	.
[16a	.
=11	=11
16a]	G
16d	.
4.d	.
2r	A
*-	*-